// @name: grooves-metronome
// @cat: rhythm
// @desc: 4/4 metronome click track with accented downbeat
// @notes: Uses sawtooth for a sharp click. First beat is pitched up and louder. Adjust gain to taste for your setup.

// 4/4 metronome / click track
// struct/add/gain should be tuned according to the setup

const click = s("sawtooth").struct("t!4")
  .note("c5".add("3 0 0 0"))
  .clip(0.25)
  .gain("1 0.25!3")